icons/link-chart-32.svg

<?xml version="1.0" encoding="UTF-8"?><svg id="icons" xmlns="http://www.w3.org/2000/svg" viewBox="0 0 32 32"><path d="M26.5,12c-1.75848,0-3.20422,1.30835-3.44946,3H8.94946c-.04614-.31824-.12531-.62463-.25128-.90936l10.1441-6.34003c.64258,.75751,1.58905,1.24939,2.65771,1.24939,1.92969,0,3.49-1.57031,3.49-3.5s-1.56031-3.5-3.49-3.5-3.5,1.57031-3.5,3.5c0,.50208,.1106,.97729,.30182,1.40936l-10.1441,6.34003c-.64258-.75751-1.58905-1.24939-2.65771-1.24939-1.92969,0-3.49,1.57031-3.49,3.5s1.56031,3.5,3.49,3.5c1.04272,0,1.96997-.46771,2.61176-1.19366l11.21436,7.23956c-.20453,.44427-.32611,.9339-.32611,1.4541,0,1.92969,1.57031,3.5,3.5,3.5s3.49-1.57031,3.49-3.5-1.56031-3.5-3.49-3.5c-1.05042,0-1.98328,.47498-2.62543,1.21027l-11.21094-7.23737c.14203-.30353,.23608-.62988,.28583-.9729h14.10107c.24524,1.69165,1.69098,3,3.44946,3,1.92969,0,3.49-1.57031,3.49-3.5s-1.56031-3.5-3.49-3.5Zm0,6c-1.37842,0-2.5-1.12158-2.5-2.5s1.12158-2.5,2.5-2.5,2.5,1.12158,2.5,2.5-1.12158,2.5-2.5,2.5Zm-7.5-12.5c0-1.37842,1.12158-2.5,2.5-2.5s2.5,1.12158,2.5,2.5-1.12158,2.5-2.5,2.5-2.5-1.12158-2.5-2.5Zm3.5,18.5c1.37842,0,2.5,1.12158,2.5,2.5s-1.12158,2.5-2.5,2.5-2.5-1.12158-2.5-2.5,1.12158-2.5,2.5-2.5Z"/><path fill="none" d="M0 0h32v32H0z"/></svg>

<svg xmlns="http://www.w3.org/2000/svg" viewBox="0 0 32 32"><path d="M26.5 12c-1.758 0-3.204 1.308-3.45 3H8.95a3.47 3.47 0 0 0-.252-.91l10.144-6.34A3.478 3.478 0 0 0 21.5 9c1.93 0 3.49-1.57 3.49-3.5S23.43 2 21.5 2 18 3.57 18 5.5c0 .502.11.977.302 1.41L8.158 13.25A3.478 3.478 0 0 0 5.5 12c-1.93 0-3.49 1.57-3.49 3.5S3.57 19 5.5 19c1.043 0 1.97-.468 2.612-1.194l11.214 7.24A3.464 3.464 0 0 0 19 26.5c0 1.93 1.57 3.5 3.5 3.5s3.49-1.57 3.49-3.5S24.43 23 22.5 23c-1.05 0-1.983.475-2.625 1.21L8.664 16.973c.142-.304.236-.63.285-.973h14.102c.245 1.692 1.69 3 3.449 3 1.93 0 3.49-1.57 3.49-3.5S28.43 12 26.5 12zm0 6c-1.378 0-2.5-1.122-2.5-2.5s1.122-2.5 2.5-2.5 2.5 1.122 2.5 2.5-1.122 2.5-2.5 2.5zM19 5.5C19 4.122 20.122 3 21.5 3S24 4.122 24 5.5 22.878 8 21.5 8 19 6.878 19 5.5zM22.5 24c1.378 0 2.5 1.122 2.5 2.5S23.878 29 22.5 29 20 27.878 20 26.5s1.122-2.5 2.5-2.5z"/><path fill="none" d="M0 0h32v32H0z"/></svg>
